workspaces/osm/styles/symbols/shop/outdoor.svg

<?xml version="1.0" encoding="UTF-8" standalone="no"?>
<svg
   xmlns:dc="http://purl.org/dc/elements/1.1/"
   xmlns:cc="http://creativecommons.org/ns#"
   xmlns:rdf="http://www.w3.org/1999/02/22-rdf-syntax-ns#"
   xmlns:svg="http://www.w3.org/2000/svg"
   xmlns="http://www.w3.org/2000/svg"
   id="svg2"
   viewBox="0 0 14 14"
   height="14"
   width="14"
   version="1.1">
  <defs
     id="defs3053" />
  <metadata
     id="metadata8">
    <rdf:RDF>
      <cc:Work
         rdf:about="">
        <dc:format>image/svg+xml</dc:format>
        <dc:type
           rdf:resource="http://purl.org/dc/dcmitype/StillImage" />
        <dc:title></dc:title>
      </cc:Work>
    </rdf:RDF>
  </metadata>
  <rect
     style="fill:none;stroke:none;visibility:hidden"
     id="canvas"
     y="0"
     x="0"
     height="14"
     width="14" />
  <path
     id="path4166"
     d="M 5.5 1.015625 A 1.5 1.5 0 0 0 4 2.515625 A 1.5 1.5 0 0 0 5.5 4.015625 A 1.5 1.5 0 0 0 7 2.515625 A 1.5 1.5 0 0 0 5.5 1.015625 z M 10 2 L 8 3 L 11 9 L 13 8 L 10 2 z M 8 4 L 6 5 L 6.2949219 6.4707031 L 4 8 L 1 7 L 1 8 L 4 10 L 6.6464844 8.234375 L 7 10 L 10 9 L 8 4 z M 1 9 L 1 14 L 2 14 L 2 9 L 1 9 z M 10 10 L 7 11 L 5 14 L 6.8339844 14 L 8.3652344 12 L 9 14 L 11 14 L 10 10 z "
     style="fill:#000000;fill-opacity:1;fill-rule:evenodd;stroke:none;stroke-opacity:1" />
</svg>

<svg width="14" height="14" version="1.1" viewBox="0 0 14 14" xmlns="http://www.w3.org/2000/svg"><rect id="a" width="14" height="14" fill="none" visibility="hidden"/><path d="m5.5 1.0156c-1.3982-0.079892-2.0598 1.9563-0.88168 2.7135 1.0302 0.8409 2.691-0.25559 2.3489-1.5254-0.13368-0.67904-0.77517-1.1986-1.4672-1.1881zm4.5 0.98438c-0.66667 0.33333-1.3333 0.66667-2 1l3 6c0.66667-0.33333 1.3333-0.66667 2-1l-3-6zm-2 2c-0.66667 0.33333-1.3333 0.66667-2 1 0.098307 0.49023 0.19661 0.98047 0.29492 1.4707-0.76497 0.50977-1.5299 1.0195-2.2949 1.5293-1-0.33333-2-0.66667-3-1v1c1 0.66667 2 1.3333 3 2 0.88216-0.58854 1.7643-1.1771 2.6465-1.7656 0.11784 0.58854 0.23568 1.1771 0.35352 1.7656 1-0.33333 2-0.66667 3-1-0.66667-1.6667-1.3333-3.3333-2-5zm-7 5v5h1v-5h-1zm9 1c-1 0.33333-2 0.66667-3 1-0.66667 1-1.3333 2-2 3h1.834c0.51042-0.66667 1.0208-1.3333 1.5312-2 0.21159 0.66667 0.42318 1.3333 0.63477 2h2c-0.33333-1.3333-0.66667-2.6667-1-4z" fill-rule="evenodd"/></svg>
